images/5459459.svg

<?xml version="1.0" encoding="UTF-8"?>
<svg xmlns="http://www.w3.org/2000/svg" xmlns:xlink="http://www.w3.org/1999/xlink" width="300pt" height="300pt" viewBox="0 0 300 300" version="1.1">
<defs>
<g>
<symbol overflow="visible" id="glyph0-0">
<path style="stroke:none;" d="M 0.453125 1.59375 L 0.453125 -6.34375 L 4.953125 -6.34375 L 4.953125 1.59375 Z M 0.953125 1.09375 L 4.453125 1.09375 L 4.453125 -5.84375 L 0.953125 -5.84375 Z M 0.953125 1.09375 "/>
</symbol>
<symbol overflow="visible" id="glyph0-1">
<path style="stroke:none;" d="M 0.890625 -6.5625 L 2.078125 -6.5625 L 4.984375 -1.078125 L 4.984375 -6.5625 L 5.84375 -6.5625 L 5.84375 0 L 4.65625 0 L 1.75 -5.484375 L 1.75 0 L 0.890625 0 Z M 0.890625 -6.5625 "/>
</symbol>
<symbol overflow="visible" id="glyph0-2">
<path style="stroke:none;" d="M 3.546875 -5.953125 C 2.898438 -5.953125 2.382812 -5.710938 2 -5.234375 C 1.625 -4.753906 1.4375 -4.101562 1.4375 -3.28125 C 1.4375 -2.445312 1.625 -1.789062 2 -1.3125 C 2.382812 -0.832031 2.898438 -0.59375 3.546875 -0.59375 C 4.191406 -0.59375 4.703125 -0.832031 5.078125 -1.3125 C 5.453125 -1.789062 5.640625 -2.445312 5.640625 -3.28125 C 5.640625 -4.101562 5.453125 -4.753906 5.078125 -5.234375 C 4.703125 -5.710938 4.191406 -5.953125 3.546875 -5.953125 Z M 3.546875 -6.6875 C 4.460938 -6.6875 5.195312 -6.375 5.75 -5.75 C 6.300781 -5.132812 6.578125 -4.3125 6.578125 -3.28125 C 6.578125 -2.238281 6.300781 -1.410156 5.75 -0.796875 C 5.195312 -0.179688 4.460938 0.125 3.546875 0.125 C 2.617188 0.125 1.878906 -0.179688 1.328125 -0.796875 C 0.773438 -1.410156 0.5 -2.238281 0.5 -3.28125 C 0.5 -4.3125 0.773438 -5.132812 1.328125 -5.75 C 1.878906 -6.375 2.617188 -6.6875 3.546875 -6.6875 Z M 3.546875 -6.6875 "/>
</symbol>
</g>
</defs>
<g id="surface41209">
<rect x="0" y="0" width="300" height="300" style="fill:rgb(100%,100%,100%);fill-opacity:1;stroke:none;"/>
<path style="fill:none;stroke-width:1.2;stroke-linecap:butt;stroke-linejoin:miter;stroke:rgb(0%,0%,0%);stroke-opacity:1;stroke-miterlimit:10;" d="M 35.25 238.1875 L 54 221.433594 "/>
<path style="fill:none;stroke-width:1.2;stroke-linecap:butt;stroke-linejoin:miter;stroke:rgb(0%,0%,0%);stroke-opacity:1;stroke-miterlimit:10;" d="M 54 221.433594 L 77.882812 229.292969 "/>
<path style="fill:none;stroke-width:1.2;stroke-linecap:butt;stroke-linejoin:miter;stroke:rgb(0%,0%,0%);stroke-opacity:1;stroke-miterlimit:10;" d="M 77.882812 229.292969 L 96.628906 212.542969 "/>
<path style="fill:none;stroke-width:1.2;stroke-linecap:butt;stroke-linejoin:miter;stroke:rgb(0%,0%,0%);stroke-opacity:1;stroke-miterlimit:10;" d="M 96.628906 212.542969 L 121.203125 217.863281 "/>
<path style="fill:none;stroke-width:1.2;stroke-linecap:butt;stroke-linejoin:miter;stroke:rgb(0%,0%,0%);stroke-opacity:1;stroke-miterlimit:10;" d="M 100.339844 207.292969 L 119.996094 211.546875 "/>
<path style="fill:none;stroke-width:1.2;stroke-linecap:butt;stroke-linejoin:miter;stroke:rgb(0%,0%,100%);stroke-opacity:1;stroke-miterlimit:10;" d="M 94.097656 187.527344 L 95.363281 200.035156 "/>
<path style="fill:none;stroke-width:1.2;stroke-linecap:butt;stroke-linejoin:miter;stroke:rgb(0%,0%,0%);stroke-opacity:1;stroke-miterlimit:10;" d="M 95.363281 200.035156 L 96.628906 212.542969 "/>
<path style="fill:none;stroke-width:1.2;stroke-linecap:butt;stroke-linejoin:miter;stroke:rgb(0%,0%,0%);stroke-opacity:1;stroke-miterlimit:10;" d="M 121.203125 217.863281 L 133.855469 196.136719 "/>
<path style="fill:none;stroke-width:1.2;stroke-linecap:butt;stroke-linejoin:miter;stroke:rgb(0%,0%,0%);stroke-opacity:1;stroke-miterlimit:10;" d="M 133.855469 196.136719 L 117.105469 177.386719 "/>
<path style="fill:none;stroke-width:1.2;stroke-linecap:butt;stroke-linejoin:miter;stroke:rgb(0%,0%,0%);stroke-opacity:1;stroke-miterlimit:10;" d="M 136.59375 190.320312 L 123.191406 175.320312 "/>
<path style="fill:none;stroke-width:1.2;stroke-linecap:butt;stroke-linejoin:miter;stroke:rgb(0%,0%,0%);stroke-opacity:1;stroke-miterlimit:10;" d="M 156.863281 185.996094 L 133.855469 196.136719 "/>
<path style="fill:none;stroke-width:1.2;stroke-linecap:butt;stroke-linejoin:miter;stroke:rgb(0%,0%,0%);stroke-opacity:1;stroke-miterlimit:10;" d="M 117.105469 177.386719 L 105.601562 182.457031 "/>
<path style="fill:none;stroke-width:1.2;stroke-linecap:butt;stroke-linejoin:miter;stroke:rgb(0%,0%,100%);stroke-opacity:1;stroke-miterlimit:10;" d="M 105.601562 182.457031 L 94.097656 187.527344 "/>
<path style="fill:none;stroke-width:1.2;stroke-linecap:butt;stroke-linejoin:miter;stroke:rgb(0%,0%,0%);stroke-opacity:1;stroke-miterlimit:10;" d="M 117.105469 177.386719 L 129.757812 155.660156 "/>
<path style="fill:none;stroke-width:1.2;stroke-linecap:butt;stroke-linejoin:miter;stroke:rgb(0%,0%,100%);stroke-opacity:1;stroke-miterlimit:10;" d="M 94.097656 187.527344 L 83.234375 181.199219 "/>
<path style="fill:none;stroke-width:1.2;stroke-linecap:butt;stroke-linejoin:miter;stroke:rgb(0%,0%,0%);stroke-opacity:1;stroke-miterlimit:10;" d="M 83.234375 181.199219 L 72.371094 174.871094 "/>
<path style=" stroke:none;fill-rule:nonzero;fill:rgb(100%,100%,100%);fill-opacity:1;" d="M 91.097656 182.027344 L 98.097656 182.027344 L 98.097656 193.027344 L 91.097656 193.027344 Z M 91.097656 182.027344 "/>
<g style="fill:rgb(0%,0%,100%);fill-opacity:1;">
  <use xlink:href="#glyph0-1" x="91.097656" y="190.69043"/>
</g>
<path style="fill:none;stroke-width:1.2;stroke-linecap:butt;stroke-linejoin:miter;stroke:rgb(0%,0%,0%);stroke-opacity:1;stroke-miterlimit:10;" d="M 72.371094 174.871094 L 72.464844 149.730469 "/>
<path style="fill:none;stroke-width:1.2;stroke-linecap:butt;stroke-linejoin:miter;stroke:rgb(0%,0%,0%);stroke-opacity:1;stroke-miterlimit:10;" d="M 72.464844 149.730469 L 94.289062 137.242188 "/>
<path style="fill:none;stroke-width:1.2;stroke-linecap:butt;stroke-linejoin:miter;stroke:rgb(0%,0%,0%);stroke-opacity:1;stroke-miterlimit:10;" d="M 71.710938 143.347656 L 89.167969 133.355469 "/>
<path style="fill:none;stroke-width:1.2;stroke-linecap:butt;stroke-linejoin:miter;stroke:rgb(0%,0%,0%);stroke-opacity:1;stroke-miterlimit:10;" d="M 50.738281 137.074219 L 72.464844 149.730469 "/>
<path style="fill:none;stroke-width:1.2;stroke-linecap:butt;stroke-linejoin:miter;stroke:rgb(0%,0%,0%);stroke-opacity:1;stroke-miterlimit:10;" d="M 94.289062 137.242188 L 94.382812 112.097656 "/>
<path style="fill:none;stroke-width:1.2;stroke-linecap:butt;stroke-linejoin:miter;stroke:rgb(0%,0%,0%);stroke-opacity:1;stroke-miterlimit:10;" d="M 94.382812 112.097656 L 72.65625 99.445312 "/>
<path style="fill:none;stroke-width:1.2;stroke-linecap:butt;stroke-linejoin:miter;stroke:rgb(0%,0%,0%);stroke-opacity:1;stroke-miterlimit:10;" d="M 89.234375 115.945312 L 71.851562 105.820312 "/>
<path style="fill:none;stroke-width:1.2;stroke-linecap:butt;stroke-linejoin:miter;stroke:rgb(0%,0%,0%);stroke-opacity:1;stroke-miterlimit:10;" d="M 72.65625 99.445312 L 50.835938 111.933594 "/>
<path style="fill:none;stroke-width:1.2;stroke-linecap:butt;stroke-linejoin:miter;stroke:rgb(0%,0%,0%);stroke-opacity:1;stroke-miterlimit:10;" d="M 72.65625 99.445312 L 72.707031 86.875 "/>
<path style="fill:none;stroke-width:1.2;stroke-linecap:butt;stroke-linejoin:miter;stroke:rgb(100%,0%,0%);stroke-opacity:1;stroke-miterlimit:10;" d="M 72.707031 86.875 L 72.753906 74.300781 "/>
<path style="fill:none;stroke-width:1.2;stroke-linecap:butt;stroke-linejoin:miter;stroke:rgb(0%,0%,0%);stroke-opacity:1;stroke-miterlimit:10;" d="M 50.835938 111.933594 L 50.738281 137.074219 "/>
<path style="fill:none;stroke-width:1.2;stroke-linecap:butt;stroke-linejoin:miter;stroke:rgb(0%,0%,0%);stroke-opacity:1;stroke-miterlimit:10;" d="M 56.742188 114.46875 L 56.664062 134.585938 "/>
<path style="fill:none;stroke-width:1.2;stroke-linecap:butt;stroke-linejoin:miter;stroke:rgb(100%,0%,0%);stroke-opacity:1;stroke-miterlimit:10;" d="M 72.753906 74.300781 L 83.664062 68.058594 "/>
<path style="fill:none;stroke-width:1.2;stroke-linecap:butt;stroke-linejoin:miter;stroke:rgb(0%,0%,0%);stroke-opacity:1;stroke-miterlimit:10;" d="M 83.664062 68.058594 L 94.574219 61.8125 "/>
<path style=" stroke:none;fill-rule:nonzero;fill:rgb(100%,100%,100%);fill-opacity:1;" d="M 68.753906 68.800781 L 76.753906 68.800781 L 76.753906 79.800781 L 68.753906 79.800781 Z M 68.753906 68.800781 "/>
<g style="fill:rgb(100%,0%,0%);fill-opacity:1;">
  <use xlink:href="#glyph0-2" x="68.753906" y="77.463867"/>
</g>
<path style="fill:none;stroke-width:1.2;stroke-linecap:butt;stroke-linejoin:miter;stroke:rgb(0%,0%,0%);stroke-opacity:1;stroke-miterlimit:10;" d="M 129.757812 155.660156 L 154.332031 160.980469 "/>
<path style="fill:none;stroke-width:1.2;stroke-linecap:butt;stroke-linejoin:miter;stroke:rgb(0%,0%,0%);stroke-opacity:1;stroke-miterlimit:10;" d="M 129.757812 155.660156 L 119.621094 132.652344 "/>
<path style="fill:none;stroke-width:1.2;stroke-linecap:butt;stroke-linejoin:miter;stroke:rgb(0%,0%,0%);stroke-opacity:1;stroke-miterlimit:10;" d="M 154.332031 160.980469 L 156.863281 185.996094 "/>
<path style="fill:none;stroke-width:1.2;stroke-linecap:butt;stroke-linejoin:miter;stroke:rgb(0%,0%,0%);stroke-opacity:1;stroke-miterlimit:10;" d="M 177.339844 150.84375 L 154.332031 160.980469 "/>
<path style="fill:none;stroke-width:1.2;stroke-linecap:butt;stroke-linejoin:miter;stroke:rgb(0%,0%,0%);stroke-opacity:1;stroke-miterlimit:10;" d="M 156.863281 185.996094 L 181.4375 191.316406 "/>
<path style="fill:none;stroke-width:1.2;stroke-linecap:butt;stroke-linejoin:miter;stroke:rgb(0%,0%,0%);stroke-opacity:1;stroke-miterlimit:10;" d="M 181.4375 191.316406 L 187.765625 180.453125 "/>
<path style="fill:none;stroke-width:1.2;stroke-linecap:butt;stroke-linejoin:miter;stroke:rgb(0%,0%,100%);stroke-opacity:1;stroke-miterlimit:10;" d="M 187.765625 180.453125 L 194.09375 169.59375 "/>
<path style="fill:none;stroke-width:1.2;stroke-linecap:butt;stroke-linejoin:miter;stroke:rgb(0%,0%,0%);stroke-opacity:1;stroke-miterlimit:10;" d="M 181.4375 191.316406 L 173.578125 215.199219 "/>
<path style="fill:none;stroke-width:1.2;stroke-linecap:butt;stroke-linejoin:miter;stroke:rgb(0%,0%,0%);stroke-opacity:1;stroke-miterlimit:10;" d="M 181.4375 191.316406 L 204.367188 201.632812 "/>
<path style="fill:none;stroke-width:1.2;stroke-linecap:butt;stroke-linejoin:miter;stroke:rgb(0%,0%,100%);stroke-opacity:1;stroke-miterlimit:10;" d="M 194.09375 169.59375 L 185.714844 160.21875 "/>
<path style="fill:none;stroke-width:1.2;stroke-linecap:butt;stroke-linejoin:miter;stroke:rgb(0%,0%,0%);stroke-opacity:1;stroke-miterlimit:10;" d="M 185.714844 160.21875 L 177.339844 150.84375 "/>
<path style="fill:none;stroke-width:1.2;stroke-linecap:butt;stroke-linejoin:miter;stroke:rgb(0%,0%,100%);stroke-opacity:1;stroke-miterlimit:10;" d="M 194.09375 169.59375 L 206.601562 168.324219 "/>
<path style="fill:none;stroke-width:1.2;stroke-linecap:butt;stroke-linejoin:miter;stroke:rgb(0%,0%,0%);stroke-opacity:1;stroke-miterlimit:10;" d="M 206.601562 168.324219 L 219.109375 167.058594 "/>
<path style=" stroke:none;fill-rule:nonzero;fill:rgb(100%,100%,100%);fill-opacity:1;" d="M 191.09375 164.09375 L 198.09375 164.09375 L 198.09375 175.09375 L 191.09375 175.09375 Z M 191.09375 164.09375 "/>
<g style="fill:rgb(0%,0%,100%);fill-opacity:1;">
  <use xlink:href="#glyph0-1" x="191.09375" y="172.756836"/>
</g>
<path style="fill:none;stroke-width:1.2;stroke-linecap:butt;stroke-linejoin:miter;stroke:rgb(0%,0%,0%);stroke-opacity:1;stroke-miterlimit:10;" d="M 216.9375 169.066406 L 223.160156 175.792969 "/>
<path style="fill:none;stroke-width:1.2;stroke-linecap:butt;stroke-linejoin:miter;stroke:rgb(100%,0%,0%);stroke-opacity:1;stroke-miterlimit:10;" d="M 223.160156 175.792969 L 229.386719 182.519531 "/>
<path style="fill:none;stroke-width:1.2;stroke-linecap:butt;stroke-linejoin:miter;stroke:rgb(0%,0%,0%);stroke-opacity:1;stroke-miterlimit:10;" d="M 221.277344 165.050781 L 227.503906 171.777344 "/>
<path style="fill:none;stroke-width:1.2;stroke-linecap:butt;stroke-linejoin:miter;stroke:rgb(100%,0%,0%);stroke-opacity:1;stroke-miterlimit:10;" d="M 227.503906 171.777344 L 233.726562 178.5 "/>
<path style="fill:none;stroke-width:1.2;stroke-linecap:butt;stroke-linejoin:miter;stroke:rgb(0%,0%,0%);stroke-opacity:1;stroke-miterlimit:10;" d="M 219.109375 167.058594 L 229.421875 144.128906 "/>
<path style=" stroke:none;fill-rule:nonzero;fill:rgb(100%,100%,100%);fill-opacity:1;" d="M 227.558594 175.011719 L 235.558594 175.011719 L 235.558594 186.011719 L 227.558594 186.011719 Z M 227.558594 175.011719 "/>
<g style="fill:rgb(100%,0%,0%);fill-opacity:1;">
  <use xlink:href="#glyph0-2" x="227.558594" y="183.674805"/>
</g>
<path style="fill:none;stroke-width:1.2;stroke-linecap:butt;stroke-linejoin:miter;stroke:rgb(0%,0%,0%);stroke-opacity:1;stroke-miterlimit:10;" d="M 229.421875 144.128906 L 254.4375 141.597656 "/>
<path style="fill:none;stroke-width:1.2;stroke-linecap:butt;stroke-linejoin:miter;stroke:rgb(0%,0%,0%);stroke-opacity:1;stroke-miterlimit:10;" d="M 231.328125 137.988281 L 251.339844 135.964844 "/>
<path style="fill:none;stroke-width:1.2;stroke-linecap:butt;stroke-linejoin:miter;stroke:rgb(0%,0%,0%);stroke-opacity:1;stroke-miterlimit:10;" d="M 214.71875 123.730469 L 229.421875 144.128906 "/>
<path style="fill:none;stroke-width:1.2;stroke-linecap:butt;stroke-linejoin:miter;stroke:rgb(0%,0%,0%);stroke-opacity:1;stroke-miterlimit:10;" d="M 254.4375 141.597656 L 264.75 118.664062 "/>
<path style="fill:none;stroke-width:1.2;stroke-linecap:butt;stroke-linejoin:miter;stroke:rgb(0%,0%,0%);stroke-opacity:1;stroke-miterlimit:10;" d="M 264.75 118.664062 L 250.050781 98.269531 "/>
<path style="fill:none;stroke-width:1.2;stroke-linecap:butt;stroke-linejoin:miter;stroke:rgb(0%,0%,0%);stroke-opacity:1;stroke-miterlimit:10;" d="M 258.480469 120.085938 L 246.71875 103.765625 "/>
<path style="fill:none;stroke-width:1.2;stroke-linecap:butt;stroke-linejoin:miter;stroke:rgb(0%,0%,0%);stroke-opacity:1;stroke-miterlimit:10;" d="M 250.050781 98.269531 L 225.035156 100.800781 "/>
<path style="fill:none;stroke-width:1.2;stroke-linecap:butt;stroke-linejoin:miter;stroke:rgb(0%,0%,0%);stroke-opacity:1;stroke-miterlimit:10;" d="M 225.035156 100.800781 L 214.71875 123.730469 "/>
<path style="fill:none;stroke-width:1.2;stroke-linecap:butt;stroke-linejoin:miter;stroke:rgb(0%,0%,0%);stroke-opacity:1;stroke-miterlimit:10;" d="M 229.398438 105.523438 L 221.148438 123.867188 "/>
<path style="fill:none;stroke-width:1.2;stroke-linecap:butt;stroke-linejoin:miter;stroke:rgb(0%,0%,0%);stroke-opacity:1;stroke-miterlimit:10;" d="M 205.792969 204.226562 L 213.824219 199.8125 "/>
<path style="fill:none;stroke-width:1.2;stroke-linecap:butt;stroke-linejoin:miter;stroke:rgb(100%,0%,0%);stroke-opacity:1;stroke-miterlimit:10;" d="M 213.824219 199.8125 L 221.859375 195.398438 "/>
<path style="fill:none;stroke-width:1.2;stroke-linecap:butt;stroke-linejoin:miter;stroke:rgb(0%,0%,0%);stroke-opacity:1;stroke-miterlimit:10;" d="M 202.945312 199.039062 L 210.976562 194.628906 "/>
<path style="fill:none;stroke-width:1.2;stroke-linecap:butt;stroke-linejoin:miter;stroke:rgb(100%,0%,0%);stroke-opacity:1;stroke-miterlimit:10;" d="M 210.976562 194.628906 L 219.007812 190.214844 "/>
<path style="fill:none;stroke-width:1.2;stroke-linecap:butt;stroke-linejoin:miter;stroke:rgb(0%,0%,0%);stroke-opacity:1;stroke-miterlimit:10;" d="M 204.367188 201.632812 L 205.636719 214.140625 "/>
<path style="fill:none;stroke-width:1.2;stroke-linecap:butt;stroke-linejoin:miter;stroke:rgb(100%,0%,0%);stroke-opacity:1;stroke-miterlimit:10;" d="M 205.636719 214.140625 L 206.902344 226.648438 "/>
<path style=" stroke:none;fill-rule:nonzero;fill:rgb(100%,100%,100%);fill-opacity:1;" d="M 216.433594 187.308594 L 224.433594 187.308594 L 224.433594 198.308594 L 216.433594 198.308594 Z M 216.433594 187.308594 "/>
<g style="fill:rgb(100%,0%,0%);fill-opacity:1;">
  <use xlink:href="#glyph0-2" x="216.433594" y="195.97168"/>
</g>
<path style="fill:none;stroke-width:1.2;stroke-linecap:butt;stroke-linejoin:miter;stroke:rgb(100%,0%,0%);stroke-opacity:1;stroke-miterlimit:10;" d="M 206.902344 226.648438 L 218.367188 231.804688 "/>
<path style="fill:none;stroke-width:1.2;stroke-linecap:butt;stroke-linejoin:miter;stroke:rgb(0%,0%,0%);stroke-opacity:1;stroke-miterlimit:10;" d="M 218.367188 231.804688 L 229.832031 236.960938 "/>
<path style=" stroke:none;fill-rule:nonzero;fill:rgb(100%,100%,100%);fill-opacity:1;" d="M 202.902344 221.148438 L 210.902344 221.148438 L 210.902344 232.148438 L 202.902344 232.148438 Z M 202.902344 221.148438 "/>
<g style="fill:rgb(100%,0%,0%);fill-opacity:1;">
  <use xlink:href="#glyph0-2" x="202.902344" y="229.811523"/>
</g>
</g>
</svg>

<svg xmlns="http://www.w3.org/2000/svg" xmlns:xlink="http://www.w3.org/1999/xlink" width="300pt" height="300pt" viewBox="0 0 300 300"><defs><symbol overflow="visible"><path d="M.453 1.594v-7.938h4.5v7.938zm.5-.5h3.5v-6.938h-3.5zm0 0"/></symbol><symbol overflow="visible" id="a"><path d="M.89-6.563H2.08l2.906 5.485v-5.484h.86V0H4.656L1.75-5.484V0H.89zm0 0"/></symbol><symbol overflow="visible" id="b"><path d="M3.547-5.953c-.65 0-1.164.242-1.547.72-.375.48-.563 1.13-.563 1.952 0 .835.188 1.49.563 1.967.383.48.898.72 1.547.72.644 0 1.156-.24 1.53-.72.376-.476.564-1.132.564-1.968 0-.822-.187-1.474-.562-1.954-.375-.477-.887-.72-1.53-.72zm0-.734c.914 0 1.648.312 2.203.937.55.617.828 1.438.828 2.47 0 1.042-.277 1.87-.828 2.483-.555.617-1.29.922-2.203.922-.93 0-1.668-.305-2.22-.922C.774-1.41.5-2.237.5-3.28c0-1.033.273-1.853.828-2.47.55-.625 1.29-.938 2.22-.938zm0 0"/></symbol></defs><g><path fill="#fff" d="M0 0h300v300H0z"/><path d="M35.25 238.188L54 221.434M54 221.434l23.883 7.86M77.883 229.293l18.746-16.75M96.63 212.543l24.573 5.32M100.34 207.293l19.656 4.254" stroke-width="1.2" stroke="#000" stroke-miterlimit="10" fill="none"/><path d="M94.098 187.527l1.265 12.508" stroke-width="1.2" stroke="#00f" stroke-miterlimit="10" fill="none"/><path d="M95.363 200.035l1.266 12.508M121.203 217.863l12.652-21.726M133.855 196.137l-16.75-18.75M136.594 190.32l-13.403-15M156.863 185.996l-23.008 10.14M117.105 177.387l-11.503 5.07" stroke-width="1.2" stroke="#000" stroke-miterlimit="10" fill="none"/><path d="M105.602 182.457l-11.504 5.07" stroke-width="1.2" stroke="#00f" stroke-miterlimit="10" fill="none"/><path d="M117.105 177.387l12.653-21.727" stroke-width="1.2" stroke="#000" stroke-miterlimit="10" fill="none"/><path d="M94.098 187.527L83.234 181.2" stroke-width="1.2" stroke="#00f" stroke-miterlimit="10" fill="none"/><path d="M83.234 181.2l-10.863-6.33" stroke-width="1.2" stroke="#000" stroke-miterlimit="10" fill="none"/><path d="M91.098 182.027h7v11h-7zm0 0" fill="#fff"/><use xlink:href="#a" x="91.098" y="190.69" fill="#00f"/><path d="M72.37 174.87l.095-25.14M72.465 149.73l21.824-12.488M71.71 143.348l17.458-9.993M50.738 137.074l21.727 12.656M94.29 137.242l.093-25.144M94.383 112.098L72.656 99.445M89.234 115.945L71.852 105.82M72.656 99.445l-21.82 12.49M72.656 99.445l.05-12.57" stroke-width="1.2" stroke="#000" stroke-miterlimit="10" fill="none"/><path d="M72.707 86.875l.047-12.574" stroke-width="1.2" stroke="#f00" stroke-miterlimit="10" fill="none"/><path d="M50.836 111.934l-.098 25.14M56.742 114.47l-.078 20.116" stroke-width="1.2" stroke="#000" stroke-miterlimit="10" fill="none"/><path d="M72.754 74.3l10.91-6.24" stroke-width="1.2" stroke="#f00" stroke-miterlimit="10" fill="none"/><path d="M83.664 68.06l10.91-6.248" stroke-width="1.2" stroke="#000" stroke-miterlimit="10" fill="none"/><path d="M68.754 68.8h8v11h-8zm0 0" fill="#fff"/><use xlink:href="#b" x="68.754" y="77.464" fill="#f00"/><path d="M129.758 155.66l24.574 5.32M129.758 155.66l-10.137-23.008M154.332 160.98l2.53 25.016M177.34 150.844l-23.008 10.136M156.863 185.996l24.575 5.32M181.438 191.316l6.328-10.863" stroke-width="1.2" stroke="#000" stroke-miterlimit="10" fill="none"/><path d="M187.766 180.453l6.328-10.86" stroke-width="1.2" stroke="#00f" stroke-miterlimit="10" fill="none"/><path d="M181.438 191.316l-7.86 23.883M181.438 191.316l22.93 10.317" stroke-width="1.2" stroke="#000" stroke-miterlimit="10" fill="none"/><path d="M194.094 169.594l-8.38-9.375" stroke-width="1.2" stroke="#00f" stroke-miterlimit="10" fill="none"/><path d="M185.715 160.22l-8.375-9.376" stroke-width="1.2" stroke="#000" stroke-miterlimit="10" fill="none"/><path d="M194.094 169.594l12.508-1.27" stroke-width="1.2" stroke="#00f" stroke-miterlimit="10" fill="none"/><path d="M206.602 168.324l12.507-1.265" stroke-width="1.2" stroke="#000" stroke-miterlimit="10" fill="none"/><path d="M191.094 164.094h7v11h-7zm0 0" fill="#fff"/><use xlink:href="#a" x="191.094" y="172.757" fill="#00f"/><path d="M216.938 169.066l6.222 6.727" stroke-width="1.2" stroke="#000" stroke-miterlimit="10" fill="none"/><path d="M223.16 175.793l6.227 6.727" stroke-width="1.2" stroke="#f00" stroke-miterlimit="10" fill="none"/><path d="M221.277 165.05l6.227 6.727" stroke-width="1.2" stroke="#000" stroke-miterlimit="10" fill="none"/><path d="M227.504 171.777l6.223 6.723" stroke-width="1.2" stroke="#f00" stroke-miterlimit="10" fill="none"/><path d="M219.11 167.06l10.312-22.93" stroke-width="1.2" stroke="#000" stroke-miterlimit="10" fill="none"/><path d="M227.56 175.012h8v11h-8zm0 0" fill="#fff"/><use xlink:href="#b" x="227.559" y="183.675" fill="#f00"/><path d="M229.422 144.13l25.016-2.532M231.328 137.988l20.012-2.023M214.72 123.73l14.702 20.4M254.438 141.598l10.312-22.934M264.75 118.664l-14.7-20.394M258.48 120.086l-11.76-16.32M250.05 98.27l-25.015 2.53M225.035 100.8l-10.316 22.93M229.398 105.523l-8.25 18.344M205.793 204.227l8.03-4.415" stroke-width="1.2" stroke="#000" stroke-miterlimit="10" fill="none"/><path d="M213.824 199.813l8.035-4.415" stroke-width="1.2" stroke="#f00" stroke-miterlimit="10" fill="none"/><path d="M202.945 199.04l8.032-4.41" stroke-width="1.2" stroke="#000" stroke-miterlimit="10" fill="none"/><path d="M210.977 194.63l8.03-4.415" stroke-width="1.2" stroke="#f00" stroke-miterlimit="10" fill="none"/><path d="M204.367 201.633l1.27 12.508" stroke-width="1.2" stroke="#000" stroke-miterlimit="10" fill="none"/><path d="M205.637 214.14l1.265 12.508" stroke-width="1.2" stroke="#f00" stroke-miterlimit="10" fill="none"/><path d="M216.434 187.31h8v11h-8zm0 0" fill="#fff"/><use xlink:href="#b" x="216.434" y="195.972" fill="#f00"/><path d="M206.902 226.648l11.465 5.157" stroke-width="1.2" stroke="#f00" stroke-miterlimit="10" fill="none"/><path d="M218.367 231.805l11.465 5.156" stroke-width="1.2" stroke="#000" stroke-miterlimit="10" fill="none"/><path d="M202.902 221.148h8v11h-8zm0 0" fill="#fff"/><use xlink:href="#b" x="202.902" y="229.812" fill="#f00"/></g></svg>
